Numix/16/status/indicator-keyboard-Da-5.svg

<?xml version="1.0" encoding="UTF-8" standalone="no"?>
<svg
   xmlns:dc="http://purl.org/dc/elements/1.1/"
   xmlns:cc="http://creativecommons.org/ns#"
   xmlns:rdf="http://www.w3.org/1999/02/22-rdf-syntax-ns#"
   xmlns:svg="http://www.w3.org/2000/svg"
   xmlns="http://www.w3.org/2000/svg"
   xmlns:sodipodi="http://sodipodi.sourceforge.net/DTD/sodipodi-0.dtd"
   xmlns:inkscape="http://www.inkscape.org/namespaces/inkscape"
   viewBox="0 0 16 16"
   id="svg2"
   version="1.1"
   inkscape:version="0.91 r13725"
   sodipodi:docname="indicator-keyboard-Da-5.svg">
  <metadata
     id="metadata14">
    <rdf:RDF>
      <cc:Work
         rdf:about="">
        <dc:format>image/svg+xml</dc:format>
        <dc:type
           rdf:resource="http://purl.org/dc/dcmitype/StillImage" />
      </cc:Work>
    </rdf:RDF>
  </metadata>
  <defs
     id="defs12" />
  <sodipodi:namedview
     pagecolor="#ffffff"
     bordercolor="#666666"
     borderopacity="1"
     objecttolerance="10"
     gridtolerance="10"
     guidetolerance="10"
     inkscape:pageopacity="0"
     inkscape:pageshadow="2"
     inkscape:window-width="459"
     inkscape:window-height="369"
     id="namedview10"
     showgrid="false"
     inkscape:zoom="14.75"
     inkscape:cx="8"
     inkscape:cy="8"
     inkscape:window-x="65"
     inkscape:window-y="24"
     inkscape:window-maximized="0"
     inkscape:current-layer="svg2" />
  <path
     style="fill:#ececec;fill-opacity:1"
     d="M 1.5996094 0 C 0.71320937 2.9605947e-16 0 0.71320937 0 1.5996094 L 0 14.400391 C 2.9605947e-16 15.286791 0.71320937 16 1.5996094 16 L 14.400391 16 C 15.286791 16 16 15.286791 16 14.400391 L 16 1.5996094 C 16 0.71320937 15.286791 0 14.400391 0 L 1.5996094 0 z M 3.0644531 4.8046875 C 3.5684531 4.8046875 4.0292188 4.8719062 4.4492188 5.0039062 C 4.8692188 5.1359063 5.2292969 5.3336562 5.5292969 5.5976562 C 5.8352969 5.8616563 6.0722344 6.1918906 6.2402344 6.5878906 C 6.4082344 6.9838906 6.4921875 7.4446562 6.4921875 7.9726562 C 6.4921875 8.5066563 6.4082344 8.9711875 6.2402344 9.3671875 C 6.0722344 9.7631875 5.8352969 10.093422 5.5292969 10.357422 C 5.2292969 10.621422 4.8692188 10.819172 4.4492188 10.951172 C 4.0292188 11.083172 3.5684531 11.150391 3.0644531 11.150391 C 2.8124531 11.150391 2.5474844 11.135469 2.2714844 11.105469 C 1.9954844 11.081469 1.7529688 11.042281 1.5429688 10.988281 L 1.5429688 4.9765625 C 1.7529688 4.9165625 1.9954844 4.8736094 2.2714844 4.8496094 C 2.5474844 4.8196094 2.8124531 4.8046875 3.0644531 4.8046875 z M 3.1367188 5.3359375 C 2.8127187 5.3359375 2.5757813 5.3452812 2.4257812 5.3632812 C 2.2817812 5.3812812 2.1902969 5.3924375 2.1542969 5.3984375 L 2.1542969 10.556641 C 2.1902969 10.562641 2.2817812 10.573797 2.4257812 10.591797 C 2.5757812 10.609797 2.8127188 10.619141 3.1367188 10.619141 C 3.5867187 10.619141 3.9784531 10.559453 4.3144531 10.439453 C 4.6504531 10.313453 4.9321563 10.136203 5.1601562 9.9082031 C 5.3881562 9.6802031 5.5598281 9.4040781 5.6738281 9.0800781 C 5.7878281 8.7500781 5.8457031 8.3806563 5.8457031 7.9726562 C 5.8457031 7.5646562 5.7878281 7.199 5.6738281 6.875 C 5.5598281 6.551 5.3881562 6.274875 5.1601562 6.046875 C 4.9321562 5.818875 4.6504531 5.6453906 4.3144531 5.5253906 C 3.9784531 5.3993906 3.5867188 5.3359375 3.1367188 5.3359375 z M 9.2304688 6.3359375 C 9.5364687 6.3359375 9.7939065 6.3807031 10.003906 6.4707031 C 10.219906 6.5547031 10.395344 6.6740781 10.527344 6.8300781 C 10.659344 6.9800781 10.754453 7.1591406 10.814453 7.3691406 C 10.874453 7.5791406 10.904297 7.8086875 10.904297 8.0546875 L 10.904297 10.988281 C 10.844297 11.006281 10.756578 11.026781 10.642578 11.050781 C 10.528578 11.068781 10.398047 11.089281 10.248047 11.113281 C 10.098047 11.137281 9.9301404 11.155969 9.7441406 11.167969 C 9.5641406 11.185969 9.3775469 11.195313 9.1855469 11.195312 C 8.9395469 11.195312 8.7119531 11.167281 8.5019531 11.113281 C 8.2979531 11.059281 8.1169375 10.975328 7.9609375 10.861328 C 7.8109375 10.741328 7.6915625 10.592109 7.6015625 10.412109 C 7.5175625 10.226109 7.4746094 10.000328 7.4746094 9.7363281 C 7.4746094 9.4843281 7.5231406 9.2698437 7.6191406 9.0898438 C 7.7151406 8.9098438 7.8513906 8.7624375 8.0253906 8.6484375 C 8.1993906 8.5284375 8.4064844 8.4407188 8.6464844 8.3867188 C 8.8864844 8.3327188 9.1457344 8.3066406 9.4277344 8.3066406 C 9.5117344 8.3066406 9.5994531 8.3122187 9.6894531 8.3242188 C 9.7854531 8.3302187 9.8749844 8.341375 9.9589844 8.359375 C 10.048984 8.371375 10.123594 8.3862969 10.183594 8.4042969 C 10.249594 8.4162969 10.296313 8.4294063 10.320312 8.4414062 L 10.320312 8.1523438 C 10.320312 7.9903438 10.307203 7.8355469 10.283203 7.6855469 C 10.259203 7.5295469 10.205094 7.3914844 10.121094 7.2714844 C 10.043094 7.1454844 9.9292966 7.0466094 9.7792969 6.9746094 C 9.6352969 6.8966094 9.443125 6.8574219 9.203125 6.8574219 C 8.861125 6.8574219 8.6074531 6.8816875 8.4394531 6.9296875 C 8.2714531 6.9776875 8.1483125 7.016875 8.0703125 7.046875 L 7.9882812 6.5332031 C 8.0902813 6.4852031 8.2470312 6.4404375 8.4570312 6.3984375 C 8.6730313 6.3564375 8.9304688 6.3359375 9.2304688 6.3359375 z M 9.4101562 8.8105469 C 9.2661563 8.8105469 9.1169375 8.8217031 8.9609375 8.8457031 C 8.8049375 8.8637031 8.6612969 8.9084688 8.5292969 8.9804688 C 8.3972969 9.0464687 8.2890781 9.1397656 8.2050781 9.2597656 C 8.1210781 9.3797656 8.078125 9.5383281 8.078125 9.7363281 C 8.078125 9.9103281 8.1061563 10.057734 8.1601562 10.177734 C 8.2201563 10.297734 8.3003438 10.394797 8.4023438 10.466797 C 8.5103438 10.538797 8.63725 10.592906 8.78125 10.628906 C 8.93125 10.658906 9.0991562 10.673828 9.2851562 10.673828 C 9.5131563 10.673828 9.7109063 10.666297 9.8789062 10.654297 C 10.052906 10.636297 10.200312 10.615797 10.320312 10.591797 L 10.320312 8.953125 C 10.254312 8.923125 10.147906 8.8932812 10.003906 8.8632812 C 9.8599065 8.8272813 9.6621562 8.8105469 9.4101562 8.8105469 z M 12.492188 8.8417969 L 14.316406 8.8417969 L 14.316406 9.1757812 L 12.824219 9.1757812 C 12.820285 9.2498812 12.814407 9.3458906 12.806641 9.4628906 C 12.798841 9.5798906 12.791003 9.6994188 12.783203 9.8242188 C 12.775403 9.9451188 12.765606 10.062681 12.753906 10.175781 C 12.742206 10.288881 12.732409 10.379012 12.724609 10.445312 C 13.024909 10.453112 13.285506 10.490341 13.503906 10.556641 C 13.722306 10.622941 13.900616 10.711119 14.041016 10.824219 C 14.181416 10.937319 14.285262 11.074475 14.351562 11.234375 C 14.421762 11.394275 14.457031 11.572578 14.457031 11.767578 C 14.457031 11.939178 14.427641 12.097894 14.369141 12.246094 C 14.314541 12.394294 14.228328 12.523613 14.111328 12.632812 C 13.994328 12.742012 13.847369 12.828225 13.667969 12.890625 C 13.488569 12.953025 13.274997 12.984375 13.029297 12.984375 C 12.904497 12.984375 12.786934 12.974578 12.677734 12.955078 C 12.572434 12.939478 12.478378 12.919884 12.392578 12.896484 C 12.310678 12.873084 12.240141 12.849572 12.181641 12.826172 C 12.123141 12.802772 12.080034 12.783178 12.052734 12.767578 L 12.152344 12.427734 C 12.175744 12.443334 12.214931 12.462928 12.269531 12.486328 C 12.328031 12.509728 12.39465 12.533241 12.46875 12.556641 C 12.54675 12.576141 12.631009 12.593775 12.724609 12.609375 C 12.822109 12.624975 12.923997 12.632812 13.029297 12.632812 C 13.224297 12.632812 13.386925 12.611259 13.515625 12.568359 C 13.648225 12.521559 13.752078 12.458859 13.830078 12.380859 C 13.908078 12.302859 13.962941 12.212728 13.994141 12.111328 C 14.029241 12.006028 14.046875 11.894337 14.046875 11.773438 C 14.046875 11.617437 14.021403 11.476362 13.970703 11.351562 C 13.920003 11.226762 13.831825 11.120956 13.703125 11.035156 C 13.574425 10.949356 13.400041 10.884697 13.181641 10.841797 C 12.963241 10.794997 12.686963 10.771484 12.351562 10.771484 C 12.374962 10.572584 12.394556 10.392316 12.410156 10.228516 C 12.425756 10.060816 12.439472 9.9001469 12.451172 9.7480469 C 12.462872 9.5920469 12.470709 9.4431281 12.474609 9.2988281 C 12.482409 9.1506281 12.488288 8.9977969 12.492188 8.8417969 z "
     id="path4" />
</svg>

<svg xmlns="http://www.w3.org/2000/svg" viewBox="0 0 16 16">
 <path d="m 1.6 0 c -0.886 0 -1.6 0.713 -1.6 1.6 l 0 12.801 c 0 0.886 0.713 1.6 1.6 1.6 l 12.801 0 c 0.886 0 1.6 -0.713 1.6 -1.6 l 0 -12.801 c 0 -0.886 -0.713 -1.6 -1.6 -1.6 l -12.801 0 z m 1.465 4.805 c 0.504 0 0.965 0.067 1.385 0.199 c 0.42 0.132 0.78 0.33 1.08 0.594 c 0.306 0.264 0.543 0.594 0.711 0.99 c 0.168 0.396 0.252 0.857 0.252 1.385 c 0 0.534 -0.084 0.999 -0.252 1.395 c -0.168 0.396 -0.405 0.726 -0.711 0.99 c -0.3 0.264 -0.66 0.462 -1.08 0.594 c -0.42 0.132 -0.881 0.199 -1.385 0.199 c -0.252 0 -0.517 -0.015 -0.793 -0.045 c -0.276 -0.024 -0.519 -0.063 -0.729 -0.117 l 0 -6.01 c 0.21 -0.06 0.453 -0.103 0.729 -0.127 c 0.276 -0.03 0.541 -0.045 0.793 -0.045 z m 0.072 0.531 c -0.324 0 -0.561 0.009 -0.711 0.027 c -0.144 0.018 -0.235 0.029 -0.271 0.035 l 0 5.158 c 0.036 0.006 0.127 0.017 0.271 0.035 c 0.15 0.018 0.387 0.027 0.711 0.027 c 0.45 0 0.842 -0.06 1.178 -0.18 c 0.336 -0.126 0.618 -0.303 0.846 -0.531 c 0.228 -0.228 0.4 -0.504 0.514 -0.828 c 0.114 -0.33 0.172 -0.699 0.172 -1.107 c 0 -0.408 -0.058 -0.774 -0.172 -1.098 c -0.114 -0.324 -0.286 -0.6 -0.514 -0.828 c -0.228 -0.228 -0.51 -0.401 -0.846 -0.521 c -0.336 -0.126 -0.728 -0.189 -1.178 -0.189 z m 6.094 1 c 0.306 0 0.563 0.045 0.773 0.135 c 0.216 0.084 0.391 0.203 0.523 0.359 c 0.132 0.15 0.227 0.329 0.287 0.539 c 0.06 0.21 0.09 0.44 0.09 0.686 l 0 2.934 c -0.06 0.018 -0.148 0.038 -0.262 0.063 c -0.114 0.018 -0.245 0.038 -0.395 0.063 c -0.15 0.024 -0.318 0.043 -0.504 0.055 c -0.18 0.018 -0.367 0.027 -0.559 0.027 c -0.246 0 -0.474 -0.028 -0.684 -0.082 c -0.204 -0.054 -0.385 -0.138 -0.541 -0.252 c -0.15 -0.12 -0.269 -0.269 -0.359 -0.449 c -0.084 -0.186 -0.127 -0.412 -0.127 -0.676 c 0 -0.252 0.049 -0.466 0.145 -0.646 c 0.096 -0.18 0.232 -0.327 0.406 -0.441 c 0.174 -0.12 0.381 -0.208 0.621 -0.262 c 0.24 -0.054 0.499 -0.08 0.781 -0.08 c 0.084 0 0.172 0.006 0.262 0.018 c 0.096 0.006 0.186 0.017 0.27 0.035 c 0.09 0.012 0.165 0.027 0.225 0.045 c 0.066 0.012 0.113 0.025 0.137 0.037 l 0 -0.289 c 0 -0.162 -0.013 -0.317 -0.037 -0.467 c -0.024 -0.156 -0.078 -0.294 -0.162 -0.414 c -0.078 -0.126 -0.192 -0.225 -0.342 -0.297 c -0.144 -0.078 -0.336 -0.117 -0.576 -0.117 c -0.342 0 -0.596 0.024 -0.764 0.072 c -0.168 0.048 -0.291 0.087 -0.369 0.117 l -0.082 -0.514 c 0.102 -0.048 0.259 -0.093 0.469 -0.135 c 0.216 -0.042 0.473 -0.063 0.773 -0.063 z m 0.18 2.475 c -0.144 0 -0.293 0.011 -0.449 0.035 c -0.156 0.018 -0.3 0.063 -0.432 0.135 c -0.132 0.066 -0.24 0.159 -0.324 0.279 c -0.084 0.12 -0.127 0.279 -0.127 0.477 c 0 0.174 0.028 0.321 0.082 0.441 c 0.06 0.12 0.14 0.217 0.242 0.289 c 0.108 0.072 0.235 0.126 0.379 0.162 c 0.15 0.03 0.318 0.045 0.504 0.045 c 0.228 0 0.426 -0.008 0.594 -0.02 c 0.174 -0.018 0.321 -0.038 0.441 -0.063 l 0 -1.639 c -0.066 -0.03 -0.172 -0.06 -0.316 -0.09 c -0.144 -0.036 -0.342 -0.053 -0.594 -0.053 z m 3.082 0.031 l 1.824 0 l 0 0.334 l -1.492 0 c -0.004 0.074 -0.01 0.17 -0.018 0.287 c -0.008 0.117 -0.016 0.237 -0.023 0.361 c -0.008 0.121 -0.018 0.238 -0.029 0.352 c -0.012 0.113 -0.021 0.203 -0.029 0.27 c 0.3 0.008 0.561 0.045 0.779 0.111 c 0.218 0.066 0.397 0.154 0.537 0.268 c 0.14 0.113 0.244 0.25 0.311 0.41 c 0.07 0.16 0.105 0.338 0.105 0.533 c 0 0.172 -0.029 0.33 -0.088 0.479 c -0.055 0.148 -0.141 0.278 -0.258 0.387 c -0.117 0.109 -0.264 0.195 -0.443 0.258 c -0.179 0.062 -0.393 0.094 -0.639 0.094 c -0.125 0 -0.242 -0.01 -0.352 -0.029 c -0.105 -0.016 -0.199 -0.035 -0.285 -0.059 c -0.082 -0.023 -0.152 -0.047 -0.211 -0.07 c -0.059 -0.023 -0.102 -0.043 -0.129 -0.059 l 0.1 -0.34 c 0.023 0.016 0.063 0.035 0.117 0.059 c 0.058 0.023 0.125 0.047 0.199 0.07 c 0.078 0.019 0.162 0.037 0.256 0.053 c 0.098 0.016 0.199 0.023 0.305 0.023 c 0.195 0 0.358 -0.022 0.486 -0.064 c 0.133 -0.047 0.236 -0.109 0.314 -0.188 c 0.078 -0.078 0.133 -0.168 0.164 -0.27 c 0.035 -0.105 0.053 -0.217 0.053 -0.338 c 0 -0.156 -0.025 -0.297 -0.076 -0.422 c -0.051 -0.125 -0.139 -0.231 -0.268 -0.316 c -0.129 -0.086 -0.303 -0.15 -0.521 -0.193 c -0.218 -0.047 -0.495 -0.07 -0.83 -0.07 c 0.023 -0.199 0.043 -0.379 0.059 -0.543 c 0.016 -0.168 0.029 -0.328 0.041 -0.48 c 0.012 -0.156 0.02 -0.305 0.023 -0.449 c 0.008 -0.148 0.014 -0.301 0.018 -0.457 z" style="fill:#ececec;fill-opacity:1"/>
</svg>
